Badges/Community/Package/link-twitter.svg

<svg width="93" height="32" viewBox="0 0 93 32" fill="none" xmlns="http://www.w3.org/2000/svg">
<g filter="url(#filter0_i_24_208)">
<rect width="93" height="32" rx="4" fill="black"/>
<path d="M21.5264 9.0625H23.9434L18.6699 15.2588L24.875 23.6875H20.0146L16.209 18.5723L11.8496 23.6875H9.43262L15.0752 17.0605L9.125 9.0625H14.1084L17.5537 13.7383L21.5264 9.0625ZM20.6826 22.2021H22.0186L13.3789 10.4688H11.9463L20.6826 22.2021Z" fill="white"/>
<path d="M36.028 12.3V13.73H33.806V20H32.31V13.73H30.088V12.3H36.028ZM38.7631 20H37.1021L35.8371 14.236H37.3661L37.9931 18.174H38.1251L39.1811 14.236H40.8091L41.8651 18.174H41.9971L42.6241 14.236H44.1531L42.8881 20H41.2271L40.0611 15.897H39.9291L38.7631 20ZM46.4971 13.4H45.0231V11.926H46.4971V13.4ZM46.4641 20H45.0561V14.236H46.4641V20ZM50.5425 18.812C50.8725 18.812 51.1255 18.768 51.4225 18.691V19.934C51.0815 20.044 50.7405 20.11 50.3225 20.11C49.0245 20.11 48.2655 19.373 48.2655 17.965V15.446H47.3195V14.236H48.2655V12.74H49.6735V14.236H51.3015V15.446H49.6735V17.943C49.6735 18.526 50.0255 18.812 50.5425 18.812ZM55.0435 18.812C55.3735 18.812 55.6265 18.768 55.9235 18.691V19.934C55.5825 20.044 55.2415 20.11 54.8235 20.11C53.5255 20.11 52.7665 19.373 52.7665 17.965V15.446H51.8205V14.236H52.7665V12.74H54.1745V14.236H55.8025V15.446H54.1745V17.943C54.1745 18.526 54.5265 18.812 55.0435 18.812ZM59.3401 20.11C57.5691 20.11 56.4141 18.911 56.4141 17.129C56.4141 15.347 57.5691 14.126 59.2191 14.126C61.0011 14.126 61.8921 15.347 61.8921 17.052V17.547H57.8331C57.9541 18.449 58.5261 18.834 59.3401 18.834C59.9341 18.834 60.3851 18.647 60.8361 18.273L61.6831 19.285C61.0671 19.857 60.1871 20.11 59.3401 20.11ZM59.2191 15.314C58.5151 15.314 58.0531 15.677 57.8771 16.403H60.4951C60.4071 15.71 59.9451 15.314 59.2191 15.314ZM64.4035 20H62.9955V14.236H64.4035V15.05L64.5795 15.116C64.8985 14.489 65.4265 14.126 66.1085 14.126C66.2735 14.126 66.4495 14.148 66.6035 14.181V15.6C66.3835 15.523 66.1085 15.468 65.7565 15.468C65.1515 15.468 64.6455 15.842 64.4035 16.348V20Z" fill="white"/>
<path d="M76.625 11.1875C76.7812 11.1875 76.9141 11.2422 77.0234 11.3516C77.1328 11.4609 77.1875 11.5938 77.1875 11.75C77.1875 11.9062 77.1328 12.0391 77.0234 12.1484C76.9141 12.2578 76.7812 12.3125 76.625 12.3125H73.0625V20.1875H80.9375V16.625C80.9375 16.4688 80.9922 16.3359 81.1016 16.2266C81.2109 16.1172 81.3438 16.0625 81.5 16.0625C81.6562 16.0625 81.7891 16.1172 81.8984 16.2266C82.0078 16.3359 82.0625 16.4688 82.0625 16.625V20.375C82.0625 20.543 82.0195 20.6992 81.9336 20.8438C81.8516 20.9883 81.7383 21.1016 81.5938 21.1836C81.4492 21.2695 81.293 21.3125 81.125 21.3125H72.875C72.707 21.3125 72.5508 21.2695 72.4062 21.1836C72.2617 21.1016 72.1465 20.9883 72.0605 20.8438C71.9785 20.6992 71.9375 20.543 71.9375 20.375V12.125C71.9375 11.957 71.9785 11.8008 72.0605 11.6562C72.1465 11.5117 72.2617 11.3984 72.4062 11.3164C72.5508 11.2305 72.707 11.1875 72.875 11.1875H76.625ZM81.5 11.1875C81.6562 11.1875 81.7891 11.2422 81.8984 11.3516C82.0078 11.4609 82.0625 11.5938 82.0625 11.75V14C82.0625 14.1562 82.0078 14.2891 81.8984 14.3984C81.7891 14.5078 81.6562 14.5625 81.5 14.5625C81.3438 14.5625 81.2109 14.5078 81.1016 14.3984C80.9922 14.2891 80.9375 14.1562 80.9375 14V13.1094L77.3984 16.6484C77.2891 16.7578 77.1562 16.8125 77 16.8125C76.8438 16.8125 76.7109 16.7578 76.6016 16.6484C76.4922 16.5391 76.4375 16.4062 76.4375 16.25C76.4375 16.0938 76.4922 15.9609 76.6016 15.8516L80.1406 12.3125H79.25C79.0938 12.3125 78.9609 12.2578 78.8516 12.1484C78.7422 12.0391 78.6875 11.9062 78.6875 11.75C78.6875 11.5938 78.7422 11.4609 78.8516 11.3516C78.9609 11.2422 79.0938 11.1875 79.25 11.1875H81.5Z" fill="white"/>
</g>
<defs>
<filter id="filter0_i_24_208" x="0" y="-2" width="93" height="34" filterUnits="userSpaceOnUse" color-interpolation-filters="sRGB">
<feFlood flood-opacity="0" result="BackgroundImageFix"/>
<feBlend mode="normal" in="SourceGraphic" in2="BackgroundImageFix" result="shape"/>
<feColorMatrix in="SourceAlpha" type="matrix" values="0 0 0 0 0 0 0 0 0 0 0 0 0 0 0 0 0 0 127 0" result="hardAlpha"/>
<feOffset dy="-2"/>
<feGaussianBlur stdDeviation="1.65"/>
<feComposite in2="hardAlpha" operator="arithmetic" k2="-1" k3="1"/>
<feColorMatrix type="matrix" values="0 0 0 0 1 0 0 0 0 1 0 0 0 0 1 0 0 0 0.11 0"/>
<feBlend mode="normal" in2="shape" result="effect1_innerShadow_24_208"/>
</filter>
</defs>
</svg>

<svg xmlns="http://www.w3.org/2000/svg" width="93" height="32" fill="none">
  <g filter="url(#a)">
    <rect width="93" height="32" fill="#000" rx="4"/>
    <path fill="#fff" d="M21.526 9.063h2.417l-5.273 6.196 6.205 8.429h-4.86l-3.806-5.116-4.36 5.116H9.434l5.642-6.627-5.95-7.998h4.983l3.446 4.675zm-.843 13.14h1.336l-8.64-11.734h-1.433zM36.028 12.3v1.43h-2.222V20H32.31v-6.27h-2.222V12.3zm2.735 7.7h-1.66l-1.266-5.764h1.53l.626 3.938h.132l1.056-3.938h1.628l1.056 3.938h.132l.627-3.938h1.53L42.887 20h-1.66l-1.167-4.103h-.132zm7.734-6.6h-1.474v-1.474h1.474zm-.033 6.6h-1.408v-5.764h1.408zm4.078-1.188c.33 0 .584-.044.88-.121v1.243c-.34.11-.681.176-1.1.176-1.297 0-2.056-.737-2.056-2.145v-2.519h-.947v-1.21h.947V12.74h1.407v1.496h1.628v1.21h-1.628v2.497c0 .583.352.869.87.869m4.502 0c.33 0 .583-.044.88-.121v1.243c-.341.11-.682.176-1.1.176-1.298 0-2.057-.737-2.057-2.145v-2.519h-.947v-1.21h.947V12.74h1.407v1.496h1.629v1.21h-1.628v2.497c0 .583.352.869.869.869m4.296 1.298c-1.77 0-2.926-1.199-2.926-2.981s1.155-3.003 2.805-3.003c1.782 0 2.673 1.221 2.673 2.926v.495h-4.059c.121.902.693 1.287 1.507 1.287.594 0 1.045-.187 1.496-.561l.847 1.012c-.616.572-1.496.825-2.343.825m-.12-4.796c-.705 0-1.167.363-1.343 1.089h2.618c-.088-.693-.55-1.089-1.276-1.089M64.402 20h-1.408v-5.764h1.408v.814l.176.066c.32-.627.848-.99 1.53-.99.165 0 .34.022.495.055V15.6a2.5 2.5 0 0 0-.847-.132c-.606 0-1.112.374-1.354.88zm12.223-8.812q.235 0 .398.164.165.164.165.398t-.165.398a.54.54 0 0 1-.398.165h-3.562v7.874h7.874v-3.562q0-.235.165-.398a.54.54 0 0 1 .398-.165q.235 0 .398.165.165.164.165.398v3.75a.9.9 0 0 1-.13.469.9.9 0 0 1-.34.34.9.9 0 0 1-.468.128h-8.25a.9.9 0 0 1-.469-.128.93.93 0 0 1-.346-.34.93.93 0 0 1-.123-.469v-8.25q0-.252.124-.469a.93.93 0 0 1 .345-.34.9.9 0 0 1 .469-.129zm4.875 0q.235 0 .398.164.165.164.165.398V14q0 .235-.165.398a.54.54 0 0 1-.398.165.54.54 0 0 1-.398-.165.54.54 0 0 1-.165-.398v-.89l-3.539 3.538a.54.54 0 0 1-.398.165.54.54 0 0 1-.398-.165.54.54 0 0 1-.165-.398q0-.235.165-.398l3.539-3.54h-.891a.54.54 0 0 1-.398-.164.54.54 0 0 1-.165-.398q0-.235.165-.398a.54.54 0 0 1 .398-.165z"/>
  </g>
  <defs>
    <filter id="a" width="93" height="34" x="0" y="-2" color-interpolation-filters="sRGB" filterUnits="userSpaceOnUse">
      <feFlood flood-opacity="0" result="BackgroundImageFix"/>
      <feBlend in="SourceGraphic" in2="BackgroundImageFix" result="shape"/>
      <feColorMatrix in="SourceAlpha" result="hardAlpha" values="0 0 0 0 0 0 0 0 0 0 0 0 0 0 0 0 0 0 127 0"/>
      <feOffset dy="-2"/>
      <feGaussianBlur stdDeviation="1.65"/>
      <feComposite in2="hardAlpha" k2="-1" k3="1" operator="arithmetic"/>
      <feColorMatrix values="0 0 0 0 1 0 0 0 0 1 0 0 0 0 1 0 0 0 0.11 0"/>
      <feBlend in2="shape" result="effect1_innerShadow_24_208"/>
    </filter>
  </defs>
</svg>
